svgs/solid/box-taped.svg

<svg xmlns="http://www.w3.org/2000/svg" viewBox="0 0 448 512"><!--! Font Awesome Pro 6.0.0-alpha3 by @fontawesome - https://fontawesome.com License - https://fontawesome.com/license (Commercial License) --><path d="M448 160l-56.75-106.1C386.9 40.75 374.8 32 360.9 32H256l31.97 128H448zM287.9 192L288 272C288 280.8 280.8 288 272 288h-96C167.2 288 160 280.8 160 272V192H0v240C0 458.5 21.49 480 48 480h352c26.51 0 48-21.49 48-48V192H287.9zM160 160l32-128H87.13c-13.88 0-26 8.75-30.38 21.88L0 160H160z"/></svg>

<svg xmlns="http://www.w3.org/2000/svg" viewBox="0 0 448 512"><!-- Font Awesome Pro 6.0.0-alpha2 by @fontawesome - https://fontawesome.com License - https://fontawesome.com/license (Commercial License) --><path d="M448 160L391.25 53.875C386.875 40.75 374.75 32 360.875 32H256L288 160H448ZM288 192V272C288 280.8 280.8 288 272 288H176C167.2 288 160 280.8 160 272V192H0V432C0 458.51 21.49 480 48 480H400C426.51 480 448 458.51 448 432V192H288ZM160 160L192 32H87.125C73.25 32 61.125 40.75 56.75 53.875L0 160H160Z"/></svg>
